public/icons/arrow.svg

<svg width="40" height="34" viewBox="0 0 40 34" fill="none" xmlns="http://www.w3.org/2000/svg">
<path d="M3.41572 33.3481C3.58117 33.5692 3.89453 33.6143 4.11561 33.4488L7.71837 30.7525C7.93946 30.587 7.98455 30.2737 7.81909 30.0526C7.65363 29.8315 7.34027 29.7864 7.11919 29.9519L3.91674 32.3486L1.52001 29.1461C1.35455 28.9251 1.0412 28.88 0.820115 29.0454C0.599031 29.2109 0.553939 29.5242 0.719399 29.7453L3.41572 33.3481ZM40 -3.05382e-07C24.0382 -8.50568e-07 14.8486 8.26262 9.67196 16.5084C7.08804 20.6243 5.50206 24.7361 4.56183 27.8168C4.09144 29.3581 3.78196 30.6436 3.58977 31.5458C3.49367 31.9969 3.42685 32.3524 3.3839 32.5962C3.36242 32.7182 3.3469 32.8122 3.33666 32.8764C3.33154 32.9085 3.32775 32.9331 3.32518 32.95C3.3239 32.9584 3.32293 32.9649 3.32226 32.9695C3.32192 32.9718 3.32166 32.9736 3.32147 32.9749C3.32137 32.9755 3.32129 32.9761 3.32124 32.9764C3.32117 32.9769 3.32112 32.9773 3.81602 33.0485C4.31092 33.1197 4.31091 33.1198 4.31091 33.1198C4.31094 33.1196 4.31096 33.1195 4.31101 33.1191C4.31111 33.1185 4.31128 33.1173 4.31152 33.1156C4.31201 33.1123 4.3128 33.107 4.31389 33.0998C4.31607 33.0855 4.31947 33.0634 4.32418 33.0339C4.33359 32.9749 4.34822 32.8862 4.36873 32.7697C4.40976 32.5368 4.47434 32.193 4.56783 31.7541C4.75483 30.8763 5.05736 29.6189 5.51827 28.1087C6.44062 25.0866 7.99435 21.0614 10.5189 17.0401C15.5592 9.01163 24.4615 0.999999 40 1L40 -3.05382e-07Z" fill="white"/>
</svg>

<svg xmlns="http://www.w3.org/2000/svg" width="40" height="34" fill="none"><path fill="#fff" d="M3.416 33.348a.5.5 0 0 0 .7.1l3.602-2.695a.5.5 0 1 0-.599-.801l-3.202 2.397-2.397-3.203a.5.5 0 0 0-.8.6zM40 0C24.038 0 14.849 8.263 9.672 16.508c-2.584 4.116-4.17 8.228-5.11 11.309a45 45 0 0 0-.972 3.729 30 30 0 0 0-.268 1.423v.007l.494.072.495.072.003-.02a9 9 0 0 1 .055-.33c.04-.233.105-.577.199-1.016.187-.878.49-2.135.95-3.645.923-3.022 2.476-7.048 5-11.069C15.56 9.012 24.463 1 40 1z"/></svg>
